X:1
T:LAID
C:James
Z:All Rights Reserved
L:1/8
Q:1/4=120
M:4/4
K:Bb
V:1 treble nm="Voice"
%%MIDI program 0
V:1
"F7" z2 z e eee"Bb"d | z2 B2"Eb" BGB"F7"A | z2 z e eee"Bb"d | z BBF"Eb" BFB"F7"A | %4
w: This bed is on fire|with pas sion ate love|the neigh bors com plain|a bout the nois es a bove|
 z2 z e eee"Bb"f | z2 B2"Eb" BBz"F7"A |"Eb" z2 z2 z2 z2 |"F7" z2 z2 z2 z2 | z2 z e eee"Bb"d | %9
w: but she on ly sings|when she's on top|||My the ra pist said|
 z2 BB"Eb" BBB"F7"A | z eee ee/ z/"Bb" ef | z2 z B"Eb" BGB"F7"A | z e e/z/e/ z/ e/z/e-"Bb" ef | %13
w: not to see you no more|she said you're like a dis ease|with- out an y cure|She said I'm so ob sessed _|
 z BBF"Eb" BFB"F"A | z F-FE- E2 z2 |"Eb" z B-BG BG B2 |"F7" F4 c4 | z8 | z8 | %19
w: that I;m be com ing a bore|oh _ NO! _|AH _ you think you're so|PRET TY|||
"Bb" z2 BF"Eb" BF/B/ z/ F/"F"A | z AAA AGA"Bb"B | z2 BF/B/"Eb" F<B z/ F3/2 |"F7" GA- A2 z4 | z8 | %24
w: Caught your hand in side the till|slam'd your fing ers in the DOOR|Fought with kit chen knives and|skew ers _||
"Bb" z2 BF/B/ z/"Eb" F/B F"F7"A |"F" z2 AA/A/- AAGA | B2"Eb" FF GFFF |"F7" F4 c4- |"Fsus4" c8 | %29
w: Dressed me up in wom an's clothes|Messed a round _ with gen der|roles Lined my eyes and called me|pret ty|_|
"Eb" z2 z2 z2 z2 |"F7" z2 z e eee"Bb"d | z2 BB"Eb" BBz"F7"A | z2 z e eez"Bb"f | %33
w: |Moved out of the house|so you moved next door|I locked you out|
 z BBG"Eb" BGB"F7"A | z eec e2 e"Bb"f | z/ B/B B"Eb"B BGB"F7"A | z2 z e eee"Bb"d | BzBB BBBc- | %38
w: you cut a hole in the wall|I found you sleep ing next|to me I thought I was alone _|You're driv ing me cra|zy When are you com ing home?|
"Eb" B2 z2 z4 | z8 | F4- c4- | B8 | F4- c4- | B8 |] %44
w: _||LAID _|_|LAID _|_|

